svgs/sharp-regular/square-star.svg

<svg xmlns="http://www.w3.org/2000/svg" viewBox="0 0 448 512"><!--! Font Awesome Pro 6.6.0 by @fontawesome - https://fontawesome.com License - https://fontawesome.com/license (Commercial License) Copyright 2024 Fonticons, Inc. --><path d="M48 80l0 352 352 0 0-352L48 80zM0 32l48 0 352 0 48 0 0 48 0 352 0 48-48 0L48 480 0 480l0-48L0 80 0 32zM271 191.3l105.1 15.3-76.1 74.2 18 104.7L224 336l-94 49.4 18-104.7L71.8 206.6 177 191.3 224 96l47 95.3z"/></svg>

<svg xmlns="http://www.w3.org/2000/svg" viewBox="0 0 448 512"><!--! Font Awesome Pro 6.4.2 by @fontawesome - https://fontawesome.com License - https://fontawesome.com/license (Commercial License) Copyright 2023 Fonticons, Inc. --><path d="M48 80V432H400V80H48zM0 32H48 400h48V80 432v48H400 48 0V432 80 32zM271 191.3l105.1 15.3-76.1 74.2 18 104.7L224 336l-94 49.4 18-104.7L71.8 206.6 177 191.3 224 96l47 95.3z"/></svg>
